static/assets/img/icons/theme/cooking/shovel.svg

<svg height="24" viewBox="0 0 24 24" width="24" xmlns="http://www.w3.org/2000/svg"><g fill="none" fill-rule="evenodd"><path d="m0 0h24v24h-24z" opacity="0"/><g fill="#000"><path d="m8.52512627 14.5606602 1.41421356 1.4142135c.39052427.3905243.39052427 1.0236893 0 1.4142136l-4.94974747 4.9497475c-.39052429.3905243-1.02368927.3905243-1.41421356 0l-1.41421356-1.4142136c-.3905243-.3905243-.3905243-1.0236893 0-1.4142136l4.94974746-4.9497474c.3905243-.3905243 1.02368927-.3905243 1.41421357 0z" opacity=".3"/><path d="m11.3535534 11.732233-2.12132035-2.1213203c-.78104859-.78104858-.78104859-2.04737854 0-2.82842712l4.24264065-4.24264069c.7810486-.78104858 2.0473786-.78104858 2.8284272 0l5.6568542 5.65685425c.7810486.78104858.7810486 2.04737856 0 2.82842716l-4.2426407 4.2426407c-.7810486.7810485-2.0473785.7810485-2.8284271 0l-2.1213203-2.1213204-2.1213204 2.1213204-1.41421355-1.4142136zm3.8890873-7.42462116-4.2426407 4.24264069.7071068.70710678 4.2426407-4.24264068zm2.1213203 2.12132035-4.2426407 4.24264071.7071068.7071068 4.2426407-4.24264073zm2.1213204 2.12132034-4.2426407 4.24264067.7071068.7071068 4.2426407-4.24264069z"/></g></g></svg>

<svg width="24px" height="24px" viewBox="0 0 24 24" version="1.1" xmlns="http://www.w3.org/2000/svg" xmlns:xlink="http://www.w3.org/1999/xlink">
    <title>Icon For Shovel</title>
    <g stroke="none" stroke-width="1" fill="none" fill-rule="evenodd">
        <rect opacity="0" x="0" y="0" width="24" height="24"></rect>
        <path d="M8.52512627,14.5606602 L9.93933983,15.9748737 C10.3298641,16.365398 10.3298641,16.998563 9.93933983,17.3890873 L4.98959236,22.3388348 C4.59906807,22.7293591 3.96590309,22.7293591 3.5753788,22.3388348 L2.16116524,20.9246212 C1.77064094,20.5340969 1.77064094,19.9009319 2.16116524,19.5104076 L7.1109127,14.5606602 C7.501437,14.1701359 8.13460197,14.1701359 8.52512627,14.5606602 Z" fill="#000000" opacity="0.3"></path>
        <path d="M11.3535534,11.732233 L9.23223305,9.6109127 C8.45118446,8.82986412 8.45118446,7.56353416 9.23223305,6.78248558 L13.4748737,2.53984489 C14.2559223,1.75879631 15.5222523,1.75879631 16.3033009,2.53984489 L21.9601551,8.19669914 C22.7412037,8.97774772 22.7412037,10.2440777 21.9601551,11.0251263 L17.7175144,15.267767 C16.9364658,16.0488155 15.6701359,16.0488155 14.8890873,15.267767 L12.767767,13.1464466 L10.6464466,15.267767 L9.23223305,13.8535534 L11.3535534,11.732233 Z M15.2426407,4.30761184 L11,8.55025253 L11.7071068,9.25735931 L15.9497475,5.01471863 L15.2426407,4.30761184 Z M17.363961,6.42893219 L13.1213203,10.6715729 L13.8284271,11.3786797 L18.0710678,7.13603897 L17.363961,6.42893219 Z M19.4852814,8.55025253 L15.2426407,12.7928932 L15.9497475,13.5 L20.1923882,9.25735931 L19.4852814,8.55025253 Z" fill="#000000"></path>
    </g>
</svg>
